packages/core/src/svgs/stat.svg

<svg width="24" height="24" viewBox="0 0 24 24" fill="none" xmlns="http://www.w3.org/2000/svg">
<g clip-path="url(#clip0_31_19346)">
<path d="M0 0H24V24H0V0Z" fill="#21353E"/>
<path d="M17.9999 9.5912C18.0787 9.55462 18.1495 9.50288 18.2083 9.43893C18.2671 9.37497 18.3128 9.30007 18.3426 9.21849C18.3724 9.1369 18.3859 9.05024 18.3823 8.96345C18.3786 8.87665 18.3579 8.79142 18.3214 8.71263C18.2848 8.63384 18.233 8.56302 18.1691 8.50423C18.1051 8.44543 18.0302 8.39981 17.9486 8.36996C17.8671 8.34011 17.7804 8.32663 17.6936 8.33027C17.6068 8.33392 17.5216 8.35462 17.4428 8.3912L12.9256 5.78549C12.9256 5.61045 12.8561 5.44257 12.7323 5.3188C12.6086 5.19502 12.4407 5.12549 12.2656 5.12549C12.0906 5.12549 11.9227 5.19502 11.799 5.3188C11.6752 5.44257 11.6056 5.61045 11.6056 5.78549L7.04993 8.3612C6.89875 8.29849 6.72965 8.2942 6.57548 8.34915C6.4213 8.4041 6.29305 8.51438 6.21561 8.65858C6.13817 8.80277 6.11707 8.9706 6.15641 9.12948C6.19575 9.28835 6.29273 9.42694 6.4285 9.51835V14.7126L5.55422 14.2198L5.72136 13.9026H4.28564L5.06564 15.1412L5.23707 14.8069L12.2785 18.8569L17.3742 15.8998C17.4856 15.9855 17.6228 16.0412 17.7728 16.0412C17.9314 16.0466 18.0866 15.9948 18.21 15.8951C18.3335 15.7955 18.4169 15.6547 18.445 15.4985C18.4731 15.3424 18.444 15.1813 18.3631 15.0449C18.2821 14.9084 18.1547 14.8057 18.0042 14.7555V9.59549L17.9999 9.5912ZM7.06707 15.0941V9.56977L7.14422 9.52692L11.9999 12.3426V17.9012L7.06707 15.0941ZM12.2528 11.7512L7.4485 8.93977V8.89263L11.9228 6.36835C12.0264 6.43247 12.1459 6.46644 12.2678 6.46644C12.3897 6.46644 12.5091 6.43247 12.6128 6.36835L17.0699 8.91406L12.2571 11.7555L12.2528 11.7512ZM12.9085 12.1369L17.3571 9.48835V14.7683L12.9085 12.1369ZM12.6428 12.7283L17.0699 15.3426L12.6428 17.9012V12.7283Z" fill="white"/>
</g>
<defs>
<clipPath id="clip0_31_19346">
<rect width="24" height="24" fill="white"/>
</clipPath>
</defs>
</svg>

<svg xmlns="http://www.w3.org/2000/svg" width="24" height="24" fill="none" viewBox="0 0 24 24"><g clip-path="url(#a)"><path fill="#21353E" d="M0 0h24v24H0z"/><path fill="#fff" d="M18 9.591a.661.661 0 1 0-.557-1.2l-4.517-2.606a.66.66 0 1 0-1.32 0L7.05 8.361a.66.66 0 0 0-.622 1.157v5.195l-.874-.493.167-.317H4.286l.78 1.238.171-.334 7.041 4.05 5.096-2.957a.65.65 0 0 0 .399.141.66.66 0 0 0 .231-1.286v-5.16zM7.067 15.094V9.57l.077-.043L12 12.343V17.9zm5.186-3.343L7.449 8.94v-.047l4.474-2.525a.66.66 0 0 0 .69 0l4.457 2.546-4.813 2.842zm.656.386 4.448-2.649v5.28zm-.266.591 4.427 2.615-4.427 2.558z"/></g><defs><clipPath id="a"><path fill="#fff" d="M0 0h24v24H0z"/></clipPath></defs></svg>
